X:1
T: Brodick Ferry
C:C Sherrit
R:Jig
Q:180
K:G
M:6/8
L:1/16
d2|:G2B2d2 G2B2d2|c4e2 g2e2c2|B2d2g2 d2B2G2|A2c2B2 A2d2B2|
G2B2d2 G2B2d2|c4e2 g2e2c2|d2f2a2 c'2b2a2|g6 g4d2|1g6 g4d2:|2g6 g4a2|
|:b2g2d2 B4d2|e4g2 c'2e2c2|B2d2g2 g2a2b2|a6 a2g2a2|
|1b2g2d2 B4d2|e4g2 c'2e2c2|d2f2a2 c'2b2a2|g6 g4a2:|
|2b2a2g2 g2f2=f2|e4g2 c2e2g2|d2f2a2 c'2b2a2||g6 g4||
